app/dist/common/images/gs-chain-plc.svg

<svg height="18" viewBox="0 0 18 18" width="18" xmlns="http://www.w3.org/2000/svg" xmlns:xlink="http://www.w3.org/1999/xlink"><linearGradient id="a" gradientUnits="userSpaceOnUse" x1="3.35" x2="21.9" y1="3.12" y2="24.43"><stop offset="0" stop-color="#1a1e21"/><stop offset="1" stop-color="#06060a"/></linearGradient><linearGradient id="b" gradientUnits="userSpaceOnUse" x1="6" x2="697.76" y1="5.5" y2="598.44"><stop offset="0" stop-color="#64a7a5"/><stop offset="1" stop-color="#346e6c"/></linearGradient><path d="m0 0h18v18h-18z" fill="url(#a)"/><path d="m14 6-5-3-5 3v6l5 3 5-3zm-5-2.83 4.86 2.91v5.84l-4.86 2.91-4.86-2.91v-5.84z" fill="#fff"/><path d="m13 6.5-4-2.5-4 2.5v5l4 2.5 4-2.5zm-4-2.32 3.86 2.4v4.83l-3.86 2.41-3.86-2.4v-4.84z" fill="#fff"/><path d="m9 5.5 3 1.75v3.5l-3 1.75-3-1.75v-3.5z" fill="url(#b)"/><path d="m9 7.54 1.25.73v1.46l-1.25.73-1.25-.73v-1.46z" fill="#fff"/></svg>

<!-- by TradingView --><svg width="18" height="18" viewBox="0 0 18 18" xmlns="http://www.w3.org/2000/svg"><path fill="url(#akeezmffc)" d="M0 0h18v18H0z"/><path d="M14 6 9 3 4 6v6l5 3 5-3V6ZM9 3.17l4.86 2.91v5.84L9 14.83l-4.86-2.91V6.08L9 3.17Z" fill="#fff"/><path d="M13 6.5 9 4 5 6.5v5L9 14l4-2.5v-5ZM9 4.18l3.86 2.4v4.83L9 13.82l-3.86-2.4V6.58L9 4.18Z" fill="#fff"/><path d="m9 5.5 3 1.75v3.5L9 12.5l-3-1.75v-3.5L9 5.5Z" fill="url(#bkeezmffc)"/><path d="m9 7.54 1.25.73v1.46L9 10.46l-1.25-.73V8.27L9 7.54Z" fill="#fff"/><defs><linearGradient id="akeezmffc" x1="3.35" y1="3.12" x2="21.9" y2="24.43" gradientUnits="userSpaceOnUse"><stop stop-color="#1A1E21"/><stop offset="1" stop-color="#06060A"/></linearGradient><linearGradient id="bkeezmffc" x1="6" y1="5.5" x2="697.76" y2="598.44" gradientUnits="userSpaceOnUse"><stop stop-color="#64A7A5"/><stop offset="1" stop-color="#346E6C"/></linearGradient></defs></svg>
